X:1
T:St Hugh's Jig
C:Traditional
M:4/4
L:1/4
Q:1/4=120
K:G
g/g/ =f a2 | e e d2 | e e =f d | g2 g d | g/g/ =f a2 | g =f d2 | e e =f d | g2 d2 |]
